!!!!SEGMENT: pl-wn--sd-xvi-qu-273--052_gomolka-mikolaj--co-sie-chlubisz-niewstydliwy.krn
!!!cenid: 15xx:257
!!!COM: Gomółka, Mikołaj
!!!COM-rismid: pe30013343
!!!CDT: ~1535->1591/04/30
!!!CNT: Polish
!!!GTL: Melodiae na psalterz polski
!!!OTL: LII. Co się chlubisz, niewstydliwy,
!!!ONB: PSALM LII. Quid gloriaris in malitia, qui potens es in iniquitate.
!!!PDT: 1580
!!!AGN: Sacred
!!!SMS-siglum: PL-Wn
!!!SMS-shelfmark: SD XVI.Qu.273
!!!SMS-shelfwork: 052 G
!!!NIFC-rismid:
!!!ONB-nifc: Melodiae na psalterz polski
**kern	**text	**kern	**text	**kern	**text	**kern	**text
*part4	*part4	*part3	*part3	*part2	*part2	*part1	*part1
*staff4	*staff4	*staff3	*staff3	*staff2	*staff2	*staff1	*staff1
*clefF4	*	*clefC4	*	*clefC3	*	*clefC1	*
*k[b-]	*	*k[b-]	*	*k[b-]	*	*k[b-]	*
*g:	*	*g:	*	*g:	*	*g:	*
*M2/1	*	*M2/1	*	*M2/1	*	*M2/1	*
*met(C|)	*	*met(C|)	*	*met(C|)	*	*met(C|)	*
*I"BASSUS.	*	*I"TENOR.	*	*I"ALTUS.	*	*I"CANTUS.	*
=1-	=1	=1-	=1	=1-	=1	=1-	=1
1D\	CO	1D/	CO	1d\	CO	1a\	CO
2D/	ſye	2F/	ſye	2A/	ſye	2a\	ſye
2BB-/	chłu-	2G/	chłu-	2B-/	chłu-	2dd\	chłu-
=2-	=2	=2-	=2	=2-	=2	=2-	=2
1AA/	-biſʒ,	1A\	-(biſʒ,)	2.c/	-biſʒ,	2.cc\	-biſʒ,
.	.	.	.	4d\	.	4b-\	.
2AA/	nie-	2A/	nie-	2e\	nie-	4a\	nie-
.	.	.	.	.	.	4g\	.
2FF/	-wſty-	2c\	-wſty-	2f\	-wſty-	2a\	-wſty-
=3-	=3	=3-	=3	=3-	=3	=3-	=3
4GG/	.	1B-\	-dli-	1d\	-dli-	1g\	-dli-
4AA/	.	.	.	.	.	.	.
4BB-/	-dli-	.	.	.	.	.	.
4C/	.	.	.	.	.	.	.
4D/	-wy,	2A/	-wy,	2d\	-(wy,)	2f/	-(wy,)
4C/	.	.	.	.	.	.	.
4D/	Ʒ nie-	2A/	Ʒ nie-	2f\	Ʒ nie-	2a\	Ʒ nie-
4E\	.	.	.	.	.	.	.
=4-	=4	=4-	=4	=4-	=4	=4-	=4
2F\	-cnót	2A/	-c(nót)	2f\	-c(nót)	2a\	-cnót
2F\	ſwo-	2A/	ſwo-	4c\	ſwo-	4g/	ſwo-
.	.	.	.	4d\	.	4f/	.
2.C/	-(ich?)	1c\	-(ich?)	2.e\	-ich?	4e/	.
.	.	.	.	.	.	4d/	.
.	.	.	.	.	.	4e/	-ich?
4D/	.	.	.	2d\	.	4f/	.
=5-	=5	=5-	=5	=5-	=5	=5-	=5
2E\	ieſt	4B-\	ieſt	.	.	4g/	.
.	.	4A\	.	4c/	ieſt	4f/	.
2F\	bóg	4A\	bóg	4A/	bóg	4f/	ieſt
.	.	8G/L	.	4B-/	.	8e/L	bóg
.	.	8F/J	ży-	.	.	8d/J	.
1C/	ʒ̇y-	1G/	.	2.c/	.	4e/	ʒ̇y-
.	.	.	.	.	.	2f/	.
.	.	.	.	4B-/	ʒ̇y-	4e/	.
=6-	=6	=6-	=6	=6-	=6	=6-	=6
!!LO:PB:g=original
2FF/	-wy,	2F/	-wy,	2A/	-wy,	2f/	-wy,
2FF/	Któ-	2A/	Któ-	2c/	Któ-	2f/	Któ-
2FF/	-ry	2A/	-ry	2c/	-ry	2f/	-ry
2FF/	świát	2A/	świát	2c/	świát	2a\	świát
=7-	=7	=7-	=7	=7-	=7	=7-	=7
1BB-/	y	1F/	y	1d\	y	2.b-\	y
.	.	.	.	.	.	4a\	.
2C/	ludʒ-	2E/	ludʒ-	2c/	ludʒ-	2g/	ludʒ-
2D/	-kié	2F/	-kié	2B-/	-kié	1f/	-kié
=8-	=8	=8-	=8	=8-	=8	=8-	=8
1C/	rʒe-	1G/	rʒe-	2.c/	rʒe-	.	.
.	.	.	.	.	.	2e/	rʒe-
.	.	.	.	4B-/	.	.	.
2FF/	-cʒy	2F/	-cʒy	2A/	-cʒy	2f/	-cʒy
2D/	U-	2A/	U-	2d\	U-	2f/	U-
=9-	=9	=9-	=9	=9-	=9	=9-	=9
!LO:TX:t=P:krzyżyk pomiędzy dźwiękami:problem	!	!	!	!	!	!	!
2C#/X	-ſta-	2A/	-ſta-	2e\	-ſta-	2a\	-ſta-
2D/	-wi-	2A/	-wi-	2d\	-wi-	2f#/X	-wi-
2.GG/	-cʒnie	2.B-\	-cʒnie	2.d\	-cʒnie	2.g/	-cʒnie
4AA/	.	4A/	.	4c/	.	4f#/	ma
=10-	=10	=10-	=10	=10-	=10	=10-	=10
2Cny/	ma	4G/	.	4c/	ma	4e/	.
.	.	4F/	ma	4B-/	.	4d/	.
2D/	ná	4E/	ná	4A/	ná	1d/	ná
.	.	4D/	.	4G/	.	.	.
1AA/	pie-	1E/	pie-	1A/	pie-	.	.
.	.	.	.	.	.	2c/	pie-
=11-	=11	=11-	=11	=11-	=11	=11-	=11
*	*	*000/left	*	*000/left	*	*	*
000D\	-cʒy.	000D/	-cʒy.	000A/	-cʒy.	000d/	-cʒy.
==	==	==	==	==	==	==	==
*-	*-	*-	*-	*-	*-	*-	*-
!!!RDF**kern: l = terminal long
!!!system-decoration: s1,s2,s3,s4
!!!ENC: Marta Lawrence
!!!END: 2020-02-20
!!!URL-scan: https://polona.pl/item/melodiae-na-psalterz-polski,Nzk3MTM4ODQ/133 Scan on Polona
!!!IIIF: https://polona.pl/iiif/item/Nzk3MTM4ODQ/manifest.json
